X:1
T:Medley Nowel
T:Medley Christmas
T:Orchestre à corde
T:Aurélie Trang
%%score 1 2 3 4
L:1/8
Q:1/4=70
M:4/4
K:Eb
V:1 treble nm="Violon" snm="Vln."
V:2 treble nm="Violon" snm="Vln."
V:3 alto nm="Alto" snm="Alt."
V:4 bass nm="Violoncelle" snm="Vlc"
V:1
"^pizz."!mp! c2 G2 B2 =A2 | F2 =A2 G4 | c2 dc B=AF_A |!>(! GECD- D4!>)! || %4
"^C'est la nuit de Noël\n""^5" z8 | z8 | z8 |"^arco"!mp!!<(! G4 GFED!<)! | C3 E C4 | D4 A2 G2 | %10
"_cresc." AABB c2 dc | d8 ||"^13" c>c BB c2 c2 | ee/e/ dd/B/ G2 G2 | FF FF/G/ A2 AA | %15
!>(! G2 EF G4!>)! ||"^17""^Noël à Jérusalem"!p! z2 G2 E2 D2 | z2 G2 E2 G2 | A4 B2 A2 | %19
!<(! G4 z2"^Solo" F/G/A/B/!<)! |!mf! A3 F F2 E/F/G/A/ | G3 E E2 D/E/F/G/ |"_dim." F3 D GFED | %23
 C4 z4 ||[K:G]!f![Q:1/4=110]"^25""^Solo End""^Adeste Fideles" !>!B,4 !>!B,2 !>!B,2 | %25
 !>!A,4 !>!A,2 z2 | !>!B,2 !>!A,2 !>!B,2 !>!C2 | !>!B,4 !^!A,2!mf! B,2 | C4 (A,2 A,2) | %29
 A,2 B,2 A,2 B,2 | D4 ^C3 C | D3 D G2 FG ||"^33""^Solo"[Q:1/4=140]"^Feliz Navidad" E4 z4 | %33
 z2 z E A2 FE | D4 z4 | z2 z D G2 FG | E3 C2 DED- | D D2 D C3 C | B,4 z4 | z bbb b2 ag | %40
 g2 e d2 e3- | eaaa a2 ge | d2 d B2 d3- | dbbb b2 ag | g2 e d2 eag | f4 f a2 a- | ag/a/ g4 z2 | %47
 z8 | z8 |[K:Eb][M:3/4][Q:1/4=130]"^Solo End""^Le Noël de la rue""^50" z6 | z6 | z6 | z6 | %53
!mp! (g2 c'2 =b_b | =a4) g2 | f4 e2 |[M:4/4]"_ral." c4 z2"^Solo" CC || %57
[M:3/4]"_acc."[Q:1/4=150]"^58" C6 | D2 D2 D2 | D6 | E2 E2 E2 | E6 | F2 F2 F2 | G4 FG | A6 | %65
 A2 B2 A2 | G6 | G2 A2 G2 | F6 | E6 | !fermata!D6 |[K:G][M:4/4][Q:1/4=110] z8 | %72
"^73""^God Rest Ye Merry Gentlemen" z8 | z8 | z8 | z8 | z8 | z8 | z8 | z7 e || %80
"^81""^Solo""^Noël de la Marche des Rois" e2 B2 e3 f | g>e g>e b3 a | a2 b2 c'bag | f2 b2 ag f2 | %84
 e2 B2 e3 f | g>e g>e b3 a | a2 b2 c'bag | f2 f2!>(! e4!>)! ||[K:D]!p!"^89" d8- | d8 | %90
!mf! Ad df/d/ Ad d2- | d8- | d2 z2 g4 |"_cresc." !////!a8- | !////!a8 | d'8 |] %96
V:2
!pp! G,4 D4 | E4 D4 | G,4 D4 |!>(! E4 D4!>)! || [CG]4 [=A,F]4 | [B,F]4 [B,E]4 | [A,E]6 [A,F]2 | %7
!mp!!<(! [G,G]4 [G,G]4!<)! | [CG]4 [=A,F]4 | [B,F]4 [B,E]4 |"_cresc." [A,E]4 [A,F]4 | %11
 [CG]4 [=B,G]4 || G>G FF E2 E2 | F2 F2 F2 E2 | B,2 DD E2 EE |!>(! E2 CE D4!>)! ||!p! z2 E2 C2 B,2 | %17
 z2 E2 B,2 E2 | E4 F2 E2 |!<(! E4 =E4!<)! |!mp! F3 C D2 G,2 | E3 C B,2 B,2 |"_dim." C3 C D4 | %23
 C4 z4 ||[K:G]!f!"^Solo" !>!G4 !>!D2 !>!G2 | !>!A4 !>!D2 z2 | !>!B2 !>!A2 !>!B2 !>!c2 | %27
 !>!B4 !^!A2 G2 | G4 (F2 E2) | F2 G2 A2 B2 | F4 E3 D | D4 z4 ||"^pizz." E3 E3 E2 | F3 F3 F2 | %34
 B,3 B,3 B,2 | B,3 B,3 B,2 | E3 E3 E2 | F3 F3 F2 | B,3 B,3 B,2 | B, z z2 z4 |"^arco" E3 E3 E2 | %41
 F3 F3 F2 | B,3 B,3 B,2 | B,3 B,3 B,2 | E3 E3 E2 | F3 F3 F2 | B,3 B,3 B,2 |!>(! B,8!>)! | %48
"_ral." z4 z2"^Solo"!mf! CD |[K:Eb][M:3/4] E4 EE | D4 DC | =B,2 =A,2 B,2 | C4 CD | E4 EE | D4 DC | %55
 =B,2 =A,2 B,2 |[M:4/4]"_ral." C4 z4 ||[M:3/4]"_acc.""^Solo End"!p! A,6 | B,6 | B,6 | B,6 | C6 | %62
 D6 | E4 z2 | z6 | z6 | d4 g2 | c6 | C2 E2 G2 | c6 | !fermata!=B6 |[K:G][M:4/4] z8 | z8 | z8 | %74
!p! (B4 A4) | (G4 F4) | (E4 F4) | (G4 A4) | (E4 F4) | (G4 A4) || B2 F2 B4 | e4 g4 |!p! c2 c2 B4 | %83
 B,4 D4 | B2 F2 B4 | e4 g4 |!p! c2 c2 B4 | B,4!>(! B,4!>)! ||[K:D]!mp! A>G FE DEFD- | D8- | D8- | %91
 D8- | D2 z2 d4 |"_cresc." !////!f8- | !////!f8 | a8 |] %96
V:3
!pp! E,4 F,4 | G,4 F,4 | E,4 F,4 |!>(! G,4 F,4!>)! || z8 | z8 | z8 |!mp!!<(! D,4 D,4!<)! | %8
 E,3 C, F,4 | D,4 E,2 E,2 |"_cresc." E,E,E,E, F,2 F,F, | F,8 || E2 DD C2 C2 | A,B,/C/ DD/D/ C2 C2 | %14
 F,F,B,B, C2 CC |!>(! B,2 A,A, B,3 G,!>)! ||!mf!"^Solo" C,4 E,E,F,F, | G,6 A,B, | C3 B, DB,CA, | %19
!<(! G,8!<)! |"^Solo End" F,3 F, G,2 G,2 | C,3 C, C,2 C,2 |"_dim." F,3 F, G,2 G,2 | C,8 || %24
[K:G]!f! !>!D,4 !>!D,2 !>!D,2 | !>!D,4 !>!D,2 z2 | !>!D,2 !>!D,2 !>!D,2 !>!E,2 | %27
 !>!D,4 !^!^D,2!mf! E,2 | E,4 (D,2 C,2) | D,2 D,2 D,2 E,2 | F,4 G,3 G, | F,4 z4 || %32
"^pizz." G,3 G,3 G,2 | A,3 A,3 A,2 | D,3 D,3 D,2 | D, z2 D,3 D,2 | G,3 G,3 G,2 | A,3 A,3 A,2 | %38
 D,3 D,3 D,2 | D, z z2 z4 |"^arco" G,3 G,3 G,2 | A,3 A,3 A,2 | D,3 D,3 D,2 | E,3 E,3 E,2 | %44
 G,3 G,3 G,2 | A,3 A,3 A,2 | D,3 D,3 D,2 |!>(! D,8!>)! |"_ral." !fermata!_B,8 | %49
[K:Eb][M:3/4]!p! z2 .G,2 .G,2 | z2 .=A,2 .A,2 | z2 .D,2 .D,2 | z2 .G,2 .G,2 | z2 .G,2 .G,2 | %54
 z2 .=A,2 .A,2 | z2 .D,2 .D,2 |[M:4/4]"_ral." z2 .G,2 .G,2 z2 ||[M:3/4]"_acc." F,6 | F,6 | G,6 | %60
 _G,6 | A,6 | B,6 | B,4 z2 | (C6 | B,6) | (B,6 | A,6) | (=A,6 | =A,6) | !fermata!G,6 | %71
[K:G][M:4/4] z8 |!p! (E4 D4) | (C4 B,4) | (E4 D4) | (C4 B,4) | (A,4 B,4) | (C4 D4) | (A,4 B,4) | %79
 (C4 D4) || G2 D2 G4 | C4 D4 | E2 E2 G4 | F4 A4 | G2 D2 G4 | C4 D4 | E2 E2 G4 | F4!>(! G4!>)! || %88
[K:D]!p! F8 | D2 F2 ECDA,- | A,8- | A,8- | A,2 z2 B,4 |"_cresc." !////!D8- | !////!D8 | F8 |] %96
V:4
!pp! C,,4 G,,4 | C,4 B,,4 | C,,4 G,,4 |!>(! C,4 B,,4!>)! ||!mf!"^Solo" C,D, E,F,/G,/ F,4 | %5
 D,E,F,A, G,4 | A,B,A,G, F,2 E,F,/F,/- |!<(! F,4 F,4!<)! | C,D,E,G, F,4 | D,2 E,F, A,2 G,2 | %10
"_cresc." A,A,B,B, C2 DC | G,8 ||"^Solo End" C,2 G,G, A,2 A,2 | F,2 B,,2 C,2 C,2 | %14
 D,D,B,,B,, A,,2 A,,A, |!>(! E,2 F,F, G,4!>)! ||!p! C,,E,,G,,C, A,,2 B,,2 | %17
 E,,G,,B,,E, E,,G,,B,,E, | A,,C,E,A,, B,,2 A,,2 |!<(! E,,G,,B,,E, =E,,G,,B,,=E,!<)! | %20
!mp! F,,A,,C,D, G,,=B,,D,F, | C,,E,,G,,C, C,,E,,G,,B,, |"_dim." F,,A,,C,D, G,,=B,,D,F, | %23
 C,G,,=E,,G,, !-(!C,,4 ||[K:G]!f! !-)!!>!G,,4 !>!G,,2 !>!G,,2 | !>!F,,4 !>!F,,2 z2 | %26
 !>!G,,2 !>!F,,2 !>!G,,2 !>!G,,2 | !>!G,,4 !^!F,,2!mf! G,,2 | A,,4 (F,,2 E,,2) | %29
 F,,2 G,,2 F,,2 G,,2 | A,,4 A,,3 A,, | D,,4 z4 || !>!C,C,C,!>!C, C,C,!>!C,C, | %33
 !>!D,D,D,!>!D, D,D,!>!D,D, | !>!G,,G,,G,,!>!G,, G,,G,,!>!G,,G,, | %35
 !>!G,,G,,G,,!>!G,, G,,G,,!>!G,, z | !>!C,C,C,!>!C, C,C,!>!C,C, | !>!D,D,D,!>!D, D,D,!>!D,D, | %38
 !>!G,,G,,G,,!>!G,, G,,G,,!>!G,,G,, | G,, z z2 z4 | !>!C,C,C,!>!C, C,C,!>!C,C, | %41
 !>!D,D,D,!>!D, D,D,!>!D,D, | !>!G,,G,,G,,!>!G,, G,,G,,!>!G,,G,, | %43
 !>!G,,G,,G,,!>!G,, G,,G,,!>!G,,G,, | !>!C,C,C,!>!C, C,C,!>!C,C, | !>!D,D,D,!>!D, D,D,!>!D,D, | %46
 !>!G,,G,,G,,!>!G,, G,,G,,!>!G,,G,, |!>(! G,,8!>)! |"_ral." !fermata![G,,D,]8 | %49
[K:Eb][M:3/4]!p! C,6 | D,6 | G,,6 | C,6 | C,6 | D,6 | G,,6 |[M:4/4]"_ral." C,6 z2 || %57
[M:3/4]"_acc." F,,2 C,2 C,2 | B,,2 F,2 F,2 | E,,2 B,,2 B,,2 | E,,2 B,,2 B,,2 | F,,2 C,2 C,2 | %62
 B,,2 F,2 F,2 | E,,2 B,,2 z2 | (F,6 | F,6) | (E,6 | E,6) | (D,6 | D,6) | !fermata!D,6 | %71
[K:G][M:4/4]"^Solo" z7!f! E,, | (E,,B,,)(B,,A,,) (G,,F,,)(E,,D,,) | (E,,F,,)(G,,A,,) B,,3 E,, | %74
 (E,,B,,)(B,,A,,) (G,,F,,)(E,,D,,) | (E,,F,,)(G,,A,,) B,,3 B,, | (C,A,,)(B,,C,) (D,E,)(B,,A,,) | %77
 (G,,E,,)(F,,G,,) A,,3 B,, | (C,A,,)(B,,C,) (D,E,)(B,,A,,) | (G,,E,,)(F,,G,,) A,,3 E,, || %80
 (E,,B,,)(B,,A,,) (G,,F,,)(E,,D,,) | (E,,F,,)(G,,A,,) B,,3 B,, | (C,A,,)(B,,C,) (D,E,)(B,,A,,) | %83
 (G,,E,,)(F,,G,,) A,,3 E,, | (E,,B,,)(B,,A,,) (G,,F,,)(E,,D,,) | (E,,F,,)(G,,A,,) B,,3 B,, | %86
 (C,A,,)(B,,C,) (D,E,)(B,,A,,) | (G,,E,,)(F,,G,,)!>(! E,,4!>)! ||[K:D]!p! D,,8- | D,,8- | D,,8 | %91
 F,,>F,, F,,>F,, E,,>E,, E,,>E,, | D,,2 z2 G,4 | A,D,,E,,F,, G,,A,,B,,C, | D,D,E,F, G,A,B,C | D8 |] %96

